logos/reasonml.svg

<?xml version="1.0" encoding="UTF-8"?>
<svg width="512px" height="192px" viewBox="0 0 512 192" version="1.1" xmlns="http://www.w3.org/2000/svg" xmlns:xlink="http://www.w3.org/1999/xlink" preserveAspectRatio="xMidYMid">
		<g>
				<rect fill="#DD4B39" x="0" y="0" width="191.33564" height="191.33564"></rect>
				<path d="M255.190367,174.50519 L250.173121,161.543972 L218.501758,161.543972 L213.379986,174.50519 L193.729107,174.50519 L225.191419,101.232498 L244.842298,101.232498 L275.572927,174.50519 L255.190367,174.50519 Z M224.250685,146.910339 L244.52872,146.910339 L234.494228,120.778851 L224.250685,146.910339 Z M335.873772,123.810104 C328.138851,119.420014 318.313412,115.970657 312.250907,115.970657 C307.651765,115.970657 304.620512,117.643073 304.620512,120.987903 C304.620512,133.112913 343.190588,126.214201 343.190588,152.55474 C343.190588,167.501952 330.020318,175.132346 313.71427,175.132346 C301.484734,175.132346 288.732567,170.63773 279.952388,163.425439 L287.37373,148.478228 C294.899599,154.958837 306.292927,159.557979 313.923322,159.557979 C319.567723,159.557979 323.121606,157.46746 323.121606,153.6 C323.121606,141.161412 284.551529,148.68728 284.551529,122.764844 C284.551529,109.071945 296.15391,100.396291 313.818796,100.396291 C324.584969,100.396291 335.455668,103.741121 343.086062,108.653841 L335.873772,123.810104 Z M391.366422,100.709869 C414.048554,100.709869 430.981758,116.597813 430.981758,137.816581 C430.981758,159.244401 414.048554,175.341398 391.366422,175.341398 C368.684291,175.341398 351.751087,159.244401 351.751087,137.816581 C351.751087,116.493287 368.684291,100.709869 391.366422,100.709869 Z M391.575474,117.015917 C380.600249,117.015917 371.401965,126.005149 371.401965,137.921107 C371.401965,149.837066 380.704775,159.035349 391.575474,159.035349 C402.550699,159.035349 411.330879,149.837066 411.330879,137.921107 C411.330879,126.005149 402.550699,117.015917 391.575474,117.015917 Z M444.036872,101.232498 L460.86555,101.232498 L494.104803,145.34245 L494.104803,101.232498 L511.874215,101.232498 L511.874215,174.50519 L495.150062,174.50519 L461.91081,130.604291 L461.91081,174.50519 L444.036872,174.50519 L444.036872,101.232498 Z" fill="#333333" fill-rule="nonzero"></path>
				<path d="M113.497467,174.50519 L91.8605952,174.50519 L81.1989481,154.227156 L66.9834187,154.227156 L66.9834187,174.50519 L47.8551696,174.50519 L47.8551696,101.232498 L80.7808443,101.232498 C100.222671,101.232498 111.302422,110.639834 111.302422,126.945882 C111.302422,138.025633 106.70328,146.178657 98.2366782,150.568747 L113.497467,174.50519 Z M66.9834187,116.493287 L66.9834187,138.966367 L80.8853702,138.966367 C88.6202907,138.966367 93.1149066,134.994381 93.1149066,127.573038 C93.1149066,120.360747 88.6202907,116.493287 80.8853702,116.493287 L66.9834187,116.493287 Z M123.531958,101.232498 L181.33481,101.232498 L181.33481,116.493287 L142.660208,116.493287 L142.660208,130.186187 L177.571875,130.186187 L177.571875,145.34245 L142.660208,145.446976 L142.660208,159.244401 L182.380069,159.244401 L182.380069,174.50519 L123.531958,174.50519 L123.531958,101.232498 Z" fill="#FFFFFF" fill-rule="nonzero"></path>
		</g>
</svg>

<svg preserveAspectRatio="xMidYMid" viewBox="0 0 512 192" xmlns="http://www.w3.org/2000/svg">
  <path fill="#DD4B39" d="M0 0h191.336v191.336H0z"/>
  <path fill="#333" d="m255.19 174.505-5.017-12.961h-31.671l-5.122 12.961h-19.65l31.461-73.273h19.651l30.73 73.273H255.19Zm-30.94-27.595h20.279l-10.035-26.131-10.243 26.131Zm111.624-23.1c-7.735-4.39-17.56-7.84-23.623-7.84-4.6 0-7.63 1.673-7.63 5.018 0 12.125 38.57 5.226 38.57 31.567 0 14.947-13.17 22.577-29.477 22.577-12.23 0-24.981-4.494-33.762-11.707l7.422-14.947c7.526 6.48 18.919 11.08 26.55 11.08 5.644 0 9.198-2.09 9.198-5.958 0-12.439-38.57-4.913-38.57-30.835 0-13.693 11.602-22.369 29.267-22.369 10.766 0 21.637 3.345 29.267 8.258l-7.212 15.156Zm55.492-23.1c22.683 0 39.616 15.888 39.616 37.107 0 21.427-16.933 37.524-39.616 37.524-22.682 0-39.615-16.097-39.615-37.524 0-21.324 16.933-37.107 39.615-37.107Zm.21 16.306c-10.976 0-20.174 8.99-20.174 20.905 0 11.916 9.303 21.114 20.173 21.114 10.976 0 19.756-9.198 19.756-21.114s-8.78-20.905-19.756-20.905Zm52.46-15.784h16.83l33.239 44.11v-44.11h17.77v73.273H495.15l-33.24-43.9v43.9h-17.873v-73.273Z"/>
  <path fill="#FFF" d="M113.497 174.505H91.861l-10.662-20.278H66.983v20.278H47.855v-73.273h32.926c19.442 0 30.521 9.408 30.521 25.714 0 11.08-4.599 19.233-13.065 23.623l15.26 23.936Zm-46.514-58.012v22.473h13.902c7.735 0 12.23-3.972 12.23-11.393 0-7.212-4.495-11.08-12.23-11.08H66.983Zm56.549-15.26h57.803v15.26H142.66v13.693h34.912v15.156l-34.912.105v13.797h39.72v15.261h-58.848v-73.273Z"/>
</svg>
